X:1
T: Angus Grant's Reel
P:Bruce Shawyer's variation
R:Reel
I:speed 232
Q:232
K:D
M:4/4
L:1/8
|:A2|dc BA GF ED|GA BG A2 Bc|dc dB AB AF|GF ED E3A|
dc BA GF ED|GA BG A2 GA|Bc dB AB AG|F2D2 D2:|
|:AG|FE DF AG FA|Bc dB AG FD|GA BG AB AF|GF ED E2 AG|
FE DF AG FA|Bc dB AG FD|GA BG AB AG|F2D2 D2:|
